Catalina-dark/actions/22/bwtonal.svg

<svg xmlns="http://www.w3.org/2000/svg" viewBox="0 0 22 22">
  <defs id="defs3051">
    <style type="text/css" id="current-color-scheme">
      .ColorScheme-Text {
        color:#f2f2f2
      }
      </style>
  </defs>
      <path
         style="fill:currentColor;fill-opacity:0.8;stroke:none"
       class="ColorScheme-Text"
         d="M 14 9 A 4.9999981 4.9999981 0 0 0 9 14 A 4.9999981 4.9999981 0 0 0 14 19 A 4.9999981 4.9999981 0 0 0 19 14 A 4.9999981 4.9999981 0 0 0 14 9 z "
         />
      <path
         style="fill:currentColor;fill-opacity:0.4;stroke:none"
       class="ColorScheme-Text"
         d="M 8 9 A 4.9999981 4.9999981 0 0 0 3 14 A 4.9999981 4.9999981 0 0 0 8 19 A 4.9999981 4.9999981 0 0 0 13 14 A 4.9999981 4.9999981 0 0 0 8 9 z "
         />
      <path
         style="fill:currentColor;fill-opacity:0.6;stroke:none"
       class="ColorScheme-Text"
         d="M 11 3 A 4.9999981 4.9999981 0 0 0 6 8 A 4.9999981 4.9999981 0 0 0 11 13 A 4.9999981 4.9999981 0 0 0 16 8 A 4.9999981 4.9999981 0 0 0 11 3 z "
          />
</svg>

<svg viewBox="0 0 22 22" xmlns="http://www.w3.org/2000/svg">
<defs>
<style id="current-color-scheme" type="text/css">.ColorScheme-Text {
        color:#dedede
      }</style>
</defs>
<path class="ColorScheme-Text" d="m14 9a5 5 0 0 0-5 5 5 5 0 0 0 5 5 5 5 0 0 0 5-5 5 5 0 0 0-5-5z" fill="currentColor" fill-opacity=".8"/>
<path class="ColorScheme-Text" d="m8 9a5 5 0 0 0-5 5 5 5 0 0 0 5 5 5 5 0 0 0 5-5 5 5 0 0 0-5-5z" fill="currentColor" fill-opacity=".4"/>
<path class="ColorScheme-Text" d="m11 3a5 5 0 0 0-5 5 5 5 0 0 0 5 5 5 5 0 0 0 5-5 5 5 0 0 0-5-5z" fill="currentColor" fill-opacity=".6"/>
</svg>
